X:1
T:James Gibb editions
T:What if my mistress now - Morley
%%score [ 1 2 ]
L:1/8
Q:1/4=108
M:3/4
K:C
V:1 treble-8 nm="Tenor" snm="T"
V:2 bass nm="Lute"
V:1
"^Thomas Morley\n(1557-1602)" G2 |"^What if my mistress now" G4 E2 | ^F4 G2 | %3
w: What|if my|mis- tress|
w: My|mis- tress|frowns, and|
w: She|blames my|truth and|
w: If|she doth|change, she|
w: If|she at|once do|
w: But|now let|love in|
w: Which|if I|find my|
[M:4/4] A4 !courtesy!=c4 |[M:3/4] B4 B2 | A4 A2 |[M:4/4][K:treble-8] G6 G2 |[M:3/4] d4 B2 | c4 d2 | %9
w: now will|needs un-|con- stant|be? Wilt|thou be|then so|
w: swears that|now I|love her|not, The|change she|finds is|
w: cause- less-|ly ac-|cus- eth|me; I|must not|let mine|
w: must not|be in|con- stan-|cy; For|why she|doth pro-|
w: please to|fa- vour|more than|one *|I a-|greed in|
w: time re-|dress all|these my|wrongs; And|let my|love re-|
w: heart some|o- ther-|where to|dwell, For,|lov- mg,|not to|
[M:4/4] e4 g4 |[M:3/4] ^f4 f2 | e4 e2 |[M:4/4][K:treble-8] d6 A2 |[M:3/4] c4 B2 | A4 G2 | %15
w: false in|love as|well as|she? No,|no, such|false- hood|
w: that which|my des-|pair be-|got, Des-|pair which|is my|
w: eyes re-|port what|they do|see; My|thoughts re-|strain'd must|
w: fess to|take such|li- ber-|ty; Her-|self she|will un-|
w: hum- ble|sort to|make my|moan; I|spake not|to a|
w: ceive the|due to|her be-|longs, Else|thus I'll|frame my|
w: be be-|lov'd, it|is a|hell. Since|so my|hap be-|
[M:4/4] d6 c2 |[M:3/4] B4 B2 | A4 A2 |[M:4/4][K:treble-8] G6 d2 |[M:3/4] e4 d2 | c4 B2 | %21
w: flee, though|wo- men|faith- less|be, No,|no, such|false- hood|
w: love, since|she all|faith for-|got, Des-|pair which|is my|
w: be, and|yet fast|will go|free, My|thoughts re-|strain'd must|
w: tie, and|yet fast|bound am|I, Her-|self she|will un-|
w: stone, where|sense of|love is|none, I|spake not|to a|
w: song or|change my|mis- tress'|longs, Else|thus I'll|frame my|
w: fell, I|bid my|love fare-|well, Since|so my|hap be-|
[M:4/4] d6 c2 |[M:3/4] B4 B2 | A4 A2 | G6 |] %25
w: flee, though|wo- men|faith- less|be.|
w: love, since|she all|faith for-|got.|
w: be, and|yet fast|will go|free.|
w: tie, and|yet fast|bound am|I.|
w: stone, where|sense of|love is|none.|
w: song or|change my|mis- tress'|longs,|
w: fell, I|bid my|love fare-|well.|
V:2
 G,,2 | C,4 C,2 | D,4 B,,2 |[M:4/4] A,,4 A,,4 |[M:3/4] G,,6 | D,6 |[M:4/4] G,,6 G,2 | %7
[M:3/4] D,4 G,2 | E,4 D,2 |[M:4/4] C,4 E,4 |[M:3/4] D,6 | A,,6 |[M:4/4] D,6 D,2 | %13
[M:3/4] A,,4 G,,2 | D,4 E,2 |[M:4/4] D,6 A,,2 |[M:3/4] G,,6 | D,6 |[M:4/4] G,,6 G,2 | %19
[M:3/4] C,4 D,2 | E,4 G,2 |[M:4/4] D,6 A,,2 |[M:3/4] G,,6 | D,6 | G,,6 |] %25

